svg/horse.svg

<svg xmlns="http://www.w3.org/2000/svg" viewBox="0 0 24 24"><path d="M22 6v3.5l-1.5.5-1.54-2.46c-.13-.21-.46-.12-.46.13v3.58c0 .98-.39 1.86-1 2.53V21H15v-6h-.25c-.21 0-.42-.03-.62-.06l-4.44-.74-1.12 2.01.96 4.79H7l-1-4.75c-.03-.3 0-.6.16-.86l1.02-1.81a3.27 3.27 0 0 1-1.68-2.77c-.04.15-.06.37-.03.69.03.44.14 1.09.07 1.81-.04.72-.37 1.46-.79 1.95-.43.49-.9.83-1.4 1.09l-.7-.7c.19-.47.38-.89.42-1.28.06-.37-.01-.67-.12-.94l-.53-1.13c-.21-.51-.47-1.25-.42-2.12.03-.85.5-1.96 1.39-2.57.9-.61 1.87-.69 2.66-.53.5.1 1.01.34 1.45.68.37-.17.8-.26 1.25-.26h5.75V7c0-2.21 1.79-4 4-4H22l-.89 1.34c.54.36.89.97.89 1.66"/></svg>

<?xml version="1.0" encoding="UTF-8"?><!DOCTYPE svg PUBLIC "-//W3C//DTD SVG 1.1//EN" "http://www.w3.org/Graphics/SVG/1.1/DTD/svg11.dtd"><svg xmlns="http://www.w3.org/2000/svg" xmlns:xlink="http://www.w3.org/1999/xlink" version="1.1" id="mdi-horse" width="24" height="24" viewBox="0 0 24 24"><path d="M22 6V9.5L20.5 10L18.96 7.54C18.83 7.33 18.5 7.42 18.5 7.67V11.25C18.5 12.23 18.11 13.11 17.5 13.78V21H15V15C14.92 15 14.84 15 14.75 15C14.54 15 14.33 14.97 14.13 14.94L9.69 14.2L8.57 16.21L9.53 21H7L6 16.25C5.97 15.95 6 15.65 6.16 15.39L7.18 13.58C6.2 13.03 5.53 12 5.5 10.81C5.46 10.96 5.44 11.18 5.47 11.5C5.5 11.94 5.61 12.59 5.54 13.31C5.5 14.03 5.17 14.77 4.75 15.26C4.32 15.75 3.85 16.09 3.35 16.35L2.65 15.65C2.84 15.18 3.03 14.76 3.07 14.37C3.13 14 3.06 13.7 2.95 13.43L2.42 12.3C2.21 11.79 1.95 11.05 2 10.18C2.03 9.33 2.5 8.22 3.39 7.61C4.29 7 5.26 6.92 6.05 7.08C6.55 7.18 7.06 7.42 7.5 7.76C7.87 7.59 8.3 7.5 8.75 7.5H14.5V7C14.5 4.79 16.29 3 18.5 3H22L21.11 4.34C21.65 4.7 22 5.31 22 6Z" /></svg>
